!!!COM: Felix Mendelssohn
!!!CNT: Deutsch
!!!TXO: Deutsch
!!!OTL: Suleika
!!!LYR: M. von Willemer, attrib. Goethe
!!!OPS: Op. 34
!!!ONM: No. 4
!!!ENC: Daniel Alt & Leigh VanHandel
!!!YOR: Sa2mmtliche Lieder fu2r eine Singstimme 
!!!YOR: Neu revidirt von Dr. L. Benda, Ausgabe fu2r mittlere Stimme
!!!YOR: Braunschweig. Henry Litolff's Verlag. Boston and New York: Arthur P. Schmidt.
!!!ODT: 1832/
**kern	**silbe
*staff1	*
=1-	=1-
*clefG2	*
*k[b-]	*
*met(C)	*
*M4/4	*
2r	.
{4.a	{Ach,
8a	um
=2	=2
4.b-	dei-
8b-	-ne
8b-	feuch-
4dd	|
8b-	-ten
=3	=3
4b-	Schwin-
8a}	-gen,}
8r	.
{4ff	{West,
4dd-	wie
=4	=4
4dd	sehr
4b-	ich
4a	dich
4e	be-
=5	=5
4g	-nei-
8f}	-de!}
8r	.
{4.a	{denn
8a	du
=6	=6
4.b-	kannst
8b-	ihm
8b-	Kun-
4dd	|
8b-	-de
=7	=7
4a	brin-
4g#}	-gen,}
{8ee	{was
8cc	ich
8bn	in
8an	der
=8	=8
4a	Tren-
4a	-nung
4.cc	lei-
8bn	|
=9	=9
4a}	-de.}
4r	.
4r	.
{8a	{Die
8a	Be-
=10	=10
4cc	-we-
4b-	-gung
4.f	dei-
8g	-ner
=11	=11
4b-	Flu2-
4a}	-gel}
4r	.
{8a	{weckt
8a	im
=12	=12
4cc	Bu-
4b-	-sen
4.f	stil-
8g	-les
=13	=13
4b-	Seh-
8a}	-nen,}
8r	.
{4.a	{Blu-
8a	-men,
=14	=14
4a	Au-
4a-	-en,
4.g	Wald
8g	und
=15	=15
4dd	Hu2-
4cc#}	-gel}
{8a	{steh'n
8ff	|
8ee	|
8ddn	bei
=16	=16
8cc	dei-
8b-	|
8a	-nem
8g	|
4.f	Hauch
8g	in
=17	=17
2a	Thra2-
4d}	-nen!}
4r	.
=18	=18
1r	.
=19	=19
1r	.
=20	=20
2r	.
{4.a	{Sag'
8a	ihm,
=21	=21
4.b-	a-
8b-	-ber
8b-	sag's
4dd	|
8b-	be-
=22	=22
4b-	-schei-
8a}	-den:}
8r	.
4r	.
{8a	{sei-
8a	-ne
=23	=23
4.dd	Lie-
8dd	-be
8dd	sei
4ee	|
8dd	mein
=24	=24
4dd	Le-
8cc#}	-ben!}
8r	.
{4cc#	{Freu-
8bn	|
8a	-di-
=25	=25
*k[f#c#]	*
4.a	-ges
8f#	Ge-
4.a	-fu2hl
8e	von
=26	=26
4g	bei-
8f#}	-den}
8r	.
{4cc#	{wird
8b	mir
8a	|
=27	=27
4.a	sei-
8f#	-ne
4.a	Na2-
8e	-he
=28	=28
4g	ge-
8f#}	-ben,}
8r	.
{8a	{wird
8f#	mir
8e	sei-
8d#	-ne
=29	=29
4d#	Na2h-
8e}	-he,}
8r	.
{8dd	{sei-
8b	|
8a	-ne
8g#	|
=30	=30
[1a	Na2-
=31	=31
8a]	|
8ff#	|
8ee	|
8dd}	-he,}
{8cc#	{sei-
8b	|
8a	-ne
8g	|
=32	=32
4.f#	Na2-
8g	-he
2a	ge-
=33	=33
4d}	-ben,}
4r	.
{4d	{wird
4g	mir
=34	=34
4.f#	sei-
8f#	-ne
4.a	Na2-
8e	-he
=35	=35
4g	ge-
8f#}	-ben,}
8r	.
{4dd	{sei-
4dd	-ne
=36	=36
2.dd	Na2-
4f#	-he
=37	=37
2.f#	ge-
4e	|
=38	=38
2d}	-ben.}
2r	.
==	==
*-	*-